src/assets/svgicons/gruop-cap.svg

<svg width="73" height="44" viewBox="0 0 73 44" fill="none" xmlns="http://www.w3.org/2000/svg">
<path d="M3.40548 23.3965C3.32618 24.3193 3.16182 25.2441 3.18696 26.1624C3.22959 27.6756 3.69886 29.04 4.97845 30.0013C5.69532 30.5405 6.51755 30.7388 7.39468 30.7437C9.82848 30.7573 12.1333 30.0983 14.5128 29.3873C12.9737 27.1228 11.4687 24.9273 8.98617 23.6645C8.24236 23.2863 7.93018 22.5843 8.22629 21.9306C8.52578 21.2668 9.28454 21.0639 10.0786 21.4537C12.3334 22.5601 14.0183 24.3212 15.3863 26.3546C17.1822 29.0222 18.8441 31.7802 20.5606 34.5015C22.2282 37.1443 24.0019 39.6979 26.3208 41.8366C29.556 44.8182 33.366 46.2681 37.7499 46.2686C42.0041 46.2697 46.0682 45.3173 50.0278 43.8345C50.0777 43.8162 50.118 43.7741 50.2577 43.6771C49.1836 42.3489 48.1656 40.9975 47.0532 39.7293C41.1586 33.0065 34.7113 26.857 27.6204 21.4095C25.48 19.7644 23.139 18.3782 20.8741 16.898C20.6583 16.7575 20.3186 16.7136 20.056 16.7547C16.1248 17.3713 12.195 18.0015 8.26821 18.6474C6.64427 18.9144 5.49438 19.903 4.56228 21.1949C4.48644 21.2995 4.3844 21.3881 4.29465 21.4836L3.40548 23.3965Z" fill="#AAAAAA"/>
<path d="M23.1208 15.252C32.8678 21.6143 41.1789 29.5329 49.018 38.1633C50.1865 36.8143 51.373 35.5072 52.4874 34.1408C54.108 32.1535 55.5106 30.0195 56.4877 27.636C57.597 24.9292 58.0489 22.1656 57.0674 19.3119C56.3374 17.1878 54.9757 15.5031 53.3287 14.0226C52.9614 13.6926 52.6234 13.3554 52.651 12.7945C52.6754 12.2878 52.914 11.8637 53.3569 11.7523C53.743 11.6546 54.328 11.661 54.5973 11.8898C59.1325 15.7387 61.2096 20.6934 59.4378 26.6449C58.3641 30.2503 56.3481 33.3165 54.0067 36.1914C53.0238 37.3975 51.9559 38.5356 50.8917 39.6716C50.5964 39.9863 50.6171 40.1565 50.8531 40.4903C51.6968 41.6816 52.49 42.9091 53.3183 44.1113C53.4312 44.2752 53.623 44.4058 53.8058 44.4947C54.6146 44.8862 55.4338 45.2554 56.2486 45.6341C57.0516 46.0074 57.578 45.9283 58.0922 45.2205C59.1788 43.7246 60.3116 42.2488 61.2543 40.6639C62.2897 38.924 63.2364 37.1131 64.0394 35.2547C65.7405 31.3194 66.422 27.2455 65.384 22.981C64.5722 19.648 62.766 16.9162 60.431 14.4916C56.5435 10.4502 51.9201 7.4903 46.7283 5.43565C43.7925 4.27299 40.7074 3.66002 37.5432 3.60997C35.0414 3.56993 32.8563 4.46721 31.1511 6.30505C28.4635 9.20291 25.8434 12.1619 23.1957 15.0964C23.159 15.1364 23.146 15.1977 23.1208 15.252Z" fill="#AAAAAA"/>
</svg>

<svg viewBox="0 0 73 44" xmlns="http://www.w3.org/2000/svg"><path d="M3.405 23.397c-.079.922-.243 1.847-.218 2.765.043 1.514.512 2.878 1.791 3.84.717.539 1.54.737 2.417.742 2.433.013 4.738-.646 7.118-1.357-1.54-2.264-3.044-4.46-5.527-5.722-.744-.379-1.056-1.08-.76-1.734.3-.664 1.059-.867 1.853-.477 2.254 1.106 3.94 2.867 5.307 4.9 1.796 2.668 3.458 5.426 5.175 8.148 1.667 2.642 3.44 5.196 5.76 7.335 3.235 2.981 7.045 4.431 11.429 4.432 4.254 0 8.318-.952 12.278-2.434.05-.019.09-.06.23-.158-1.074-1.328-2.092-2.68-3.205-3.948-5.894-6.722-12.342-12.872-19.433-18.32-2.14-1.645-4.481-3.03-6.746-4.511-.216-.14-.555-.184-.818-.143q-5.897.924-11.788 1.892c-1.624.267-2.774 1.256-3.706 2.548-.076.104-.178.193-.267.289z"/><path d="M23.12 15.252c9.748 6.362 18.059 14.28 25.898 22.911 1.169-1.349 2.355-2.656 3.47-4.022 1.62-1.987 3.023-4.121 4-6.505 1.109-2.707 1.56-5.47.58-8.324-.73-2.124-2.092-3.809-3.74-5.29-.367-.33-.705-.667-.677-1.228.024-.506.263-.93.706-1.042.386-.097.971-.091 1.24.138 4.535 3.849 6.613 8.803 4.84 14.755-1.073 3.605-3.089 6.671-5.43 9.546-.983 1.206-2.051 2.345-3.115 3.48-.296.315-.275.486-.039.82.844 1.19 1.637 2.418 2.465 3.62.113.164.305.295.488.384.809.391 1.628.76 2.443 1.14.803.372 1.329.293 1.843-.414 1.087-1.496 2.22-2.972 3.162-4.557a47 47 0 0 0 2.785-5.41c1.701-3.935 2.383-8.008 1.345-12.273-.812-3.333-2.618-6.065-4.953-8.49-3.887-4.04-8.51-7-13.703-9.055a26 26 0 0 0-9.185-1.826c-2.502-.04-4.687.857-6.392 2.695-2.687 2.898-5.308 5.857-7.955 8.791-.037.04-.05.102-.075.156"/></svg>
